; generated by PrusaSlicer 2.9.5 on 2026-06-10 at 21:55:45 UTC


;
;

;
;

;
;

;
;
; 

; external perimeters extrusion width = 1.00mm
; perimeters extrusion width = 1.00mm
; infill extrusion width = 0.90mm
; solid infill extrusion width = 0.90mm
; top infill extrusion width = 0.75mm
; first layer extrusion width = 1.00mm

M73 P0 R113
M73 Q0 S113
M201 X4000 Y4000 Z200 E2500 ; sets maximum accelerations, mm/sec^2
M203 X300 Y300 Z40 E100 ; sets maximum feedrates, mm / sec
M204 P4000 R2500 T4000 ; sets acceleration (P, T) and retract acceleration (R), mm/sec^2
M205 X8.00 Y8.00 Z2.00 E10.00 ; sets the jerk limits, mm/sec
M205 J0.010 ; sets the junction deviation, mm
M205 S0 T0 ; sets the minimum extruding and travel feed rate, mm/sec

M486 S0
M486 Ash_wall.stl
M486 S-1

;TYPE:Custom
M17 ; enable steppers
M862.1 P0.8 A0 F1 ; nozzle check
M862.3 P "MK4S" ; printer model check
M862.5 P2 ; g-code level check
M862.6 P"Input shaper" ; FW feature check
M115 U6.5.3+12780

M555 X25 Y89.8261 W200 H26.6739

G90 ; use absolute coordinates
M83 ; extruder relative mode

M140 S85 ; set bed temp
M104 T0 S175 ; set extruder temp for bed leveling
M109 T0 R175 ; wait for temp

M84 E ; turn off E motor

G28 ; home all without mesh bed level

G1 X42 Y-4 Z5 F4800

M302 S155 ; lower cold extrusion limit to 155C


G1 E-2 F2400 ; retraction


M84 E ; turn off E motor

G29 P9 X10 Y-4 W32 H4



G0 Z40 F10000

M190 S85 ; wait for bed temp

M107

;
; MBL
;
M84 E ; turn off E motor
G29 P1 ; invalidate mbl & probe print area
G29 P1 X0 Y0 W50 H20 C ; probe near purge place
G29 P3.2 ; interpolate mbl probes
G29 P3.13 ; extrapolate mbl outside probe area
G29 A ; activate mbl

; prepare for purge
M104 S245
G0 X0 Y-4 Z15 F4800 ; move away and ready for the purge
M109 S245

G92 E0
M569 S0 E ; set spreadcycle mode for extruder

;
; Extrude purge line
;
G92 E0 ; reset extruder position
G1 E2 F2400 ; deretraction after the initial one before nozzle cleaning
G0 E7 X15 Z0.2 F500 ; purge
G0 X25 E4 F500 ; purge
G0 X35 E4 F650 ; purge
G0 X45 E4 F800 ; purge
G0 X48 Z0.05 F8000 ; wipe, move close to the bed
G0 X51 Z0.2 F8000 ; wipe, move quickly away from the bed

G92 E0
M221 S100 ; set flow to 100%
G21 ; set units to millimeters
G90 ; use absolute coordinates
M83 ; use relative distances for extrusion
M572 S0.021 ; Filament gcode

M142 S36 ; set heatbreak target temp
M107
;LAYER_CHANGE
;Z:0.2
;HEIGHT:0.2
G1 E-.8 F1500
G1 Z.8 F720
M486 S0
G1 X124.218 Y99.54 F18000
G1 Z.2 F720
G1 E.8 F900
M204 P500
;TYPE:External perimeter
;WIDTH:0.999999
G1 F2400
G1 X124.826 Y99.453 E.04888
G1 X125.879 Y99.216 E.0859
G1 X126.836 Y98.927 E.07956
G1 X127.463 Y98.698 E.05312
G1 X128.089 Y98.442 E.05382
G1 X129.013 Y98.019 E.08087
G1 X131.312 Y96.87 E.20454
G1 X132.191 Y96.457 E.07729
G1 X133.06 Y96.094 E.07495
G1 X133.924 Y95.788 E.07294
G1 X134.494 Y95.62 E.04729
G1 X135.06 Y95.478 E.04644
G1 X136.21 Y95.267 E.09305
G1 X137.359 Y95.149 E.09192
G1 X138.512 Y95.112 E.0918
G1 X139.668 Y95.154 E.09206
G1 X140.528 Y95.237 E.06876
G1 X141.682 Y95.422 E.09301
G1 X142.543 Y95.618 E.07027
G1 X143.405 Y95.867 E.0714
G1 X144.823 Y96.388 E.12022
G1 X145.947 Y96.861 E.09705
G1 X148.756 Y98.115 E.24481
G1 X149.991 Y98.592 E.10536
G1 X150.942 Y98.902 E.0796
G1 X152.174 Y99.223 E.10132
G1 X153.418 Y99.46 E.10078
G1 X154.658 Y99.621 E.09951
G1 X156.192 Y99.738 E.12243
G1 X157.12 Y99.774 E.07391
G1 X158.333 Y99.791 E.09654
G1 X159.55 Y99.777 E.09686
G1 X160.766 Y99.738 E.09682
G1 X162.884 Y99.621 E.16881
G1 X167.192 Y99.29 E.34385
G1 X168.882 Y99.179 E.13478
G1 X170.766 Y99.099 E.15007
G1 X172.549 Y99.071 E.14191
G1 X174.934 Y99.099 E.18981
G1 X180.537 Y99.276 E.44612
G1 X183.55 Y99.334 E.23982
G1 X186.26 Y99.346 E.21567
G1 X192.97 Y99.302 E.534
G1 X196.767 Y99.31 E.30217
G1 X211.477 Y99.453 E1.1707
G1 X219.389 Y99.588 E.62974
G1 X221.914 Y99.579 E.20094
G1 X222.552 Y99.604 E.05081
G1 X222.923 Y99.744 E.03156
G1 X223.359 Y100.028 E.04141
G1 X223.749 Y100.428 E.04446
G1 X224.024 Y100.845 E.03975
G1 X224.235 Y101.335 E.04246
G1 X224.291 Y101.775 E.0353
G1 X224.3 Y113.165 E.90643
G1 X224.266 Y113.786 E.04949
G1 X224.093 Y114.256 E.03986
G1 X223.779 Y114.739 E.04585
G1 X223.395 Y115.166 E.0457
G1 X222.912 Y115.516 E.04747
G1 X222.455 Y115.715 E.03967
G1 X221.968 Y115.8 E.03934
G1 X28.032 Y115.8 E15.43371
G1 X27.565 Y115.721 E.03769
G1 X27.216 Y115.569 E.03029
G1 X26.759 Y115.287 E.04274
G1 X26.324 Y114.864 E.04829
G1 X25.987 Y114.419 E.04442
G1 X25.785 Y113.955 E.04027
G1 X25.7 Y113.468 E.03934
G1 X25.7 Y101.913 E.91956
G1 X25.734 Y101.394 E.04139
G1 X25.919 Y100.849 E.0458
G1 X26.198 Y100.354 E.04522
G1 X26.617 Y99.856 E.05179
G1 X27.122 Y99.441 E.05202
G1 X27.625 Y99.146 E.04641
G1 X28.22 Y98.957 E.04968
G1 X28.884 Y98.8 E.0543
G1 X29.717 Y98.571 E.06875
G1 X30.945 Y98.166 E.1029
G1 X32.481 Y97.555 E.13155
G1 X34.989 Y96.433 E.21865
G1 X36.166 Y95.938 E.10161
G1 X37.327 Y95.52 E.0982
G1 X38.48 Y95.193 E.09538
G1 X39.339 Y95.011 E.06988
G1 X40.202 Y94.879 E.06948
G1 X41.066 Y94.794 E.06909
G1 X42.129 Y94.747 E.08468
G1 X42.994 Y94.756 E.06884
G1 X43.857 Y94.808 E.0688
G1 X44.714 Y94.91 E.06868
G1 X45.568 Y95.072 E.06917
G1 X46.129 Y95.216 E.04609
G1 X46.692 Y95.394 E.04699
G1 X47.256 Y95.607 E.04798
G1 X47.916 Y95.903 E.05756
G1 X49.23 Y96.619 E.11909
G1 X51.07 Y97.733 E.17118
G1 X51.995 Y98.265 E.08492
G1 X52.939 Y98.737 E.08399
G1 X53.906 Y99.13 E.08307
G1 X54.552 Y99.339 E.05403
G1 X55.502 Y99.573 E.07786
G1 X56.136 Y99.685 E.05124
G1 X56.765 Y99.767 E.05048
G1 X57.393 Y99.823 E.05018
G1 X58.123 Y99.858 E.05816
G1 X58.959 Y99.865 E.06653
G1 X60.188 Y99.809 E.09791
G1 X60.832 Y99.742 E.05153
G1 X61.474 Y99.647 E.05165
G1 X62.435 Y99.439 E.07825
G1 X63.399 Y99.136 E.08042
G1 X64.356 Y98.733 E.08264
G1 X65.287 Y98.244 E.08369
G1 X66.217 Y97.674 E.08681
G1 X68.409 Y96.239 E.2085
G1 X69.176 Y95.796 E.07049
G1 X69.739 Y95.513 E.05015
G1 X70.392 Y95.237 E.05642
G1 X71.139 Y94.988 E.06266
G1 X71.981 Y94.787 E.06889
G1 X72.832 Y94.656 E.06852
G1 X73.496 Y94.595 E.05306
G1 X74.265 Y94.561 E.06126
G1 X74.936 Y94.56 E.0534
G1 X75.704 Y94.591 E.06117
G1 X76.566 Y94.673 E.06891
G1 X77.131 Y94.758 E.04547
G1 X77.695 Y94.872 E.04579
G1 X78.257 Y95.019 E.04623
G1 X78.814 Y95.2 E.04661
G1 X79.982 Y95.706 E.1013
G1 X81.285 Y96.428 E.11855
G1 X82.898 Y97.421 E.15074
G1 X83.822 Y97.959 E.08509
G1 X84.571 Y98.344 E.06702
G1 X85.416 Y98.715 E.07344
G1 X86.064 Y98.948 E.0548
G1 X87.018 Y99.212 E.07877
G1 X87.666 Y99.34 E.05257
G1 X88.706 Y99.471 E.08342
G1 X89.861 Y99.518 E.09199
G1 X90.51 Y99.501 E.05167
G1 X91.154 Y99.454 E.05139
G1 X92.19 Y99.309 E.08325
G1 X92.741 Y99.193 E.04481
G1 X93.388 Y99.02 E.0533
G1 X94.342 Y98.687 E.08041
G1 X95.084 Y98.362 E.06447
G1 X96.008 Y97.886 E.08272
G1 X96.835 Y97.406 E.0761
G1 X98.626 Y96.313 E.16698
G1 X99.495 Y95.83 E.07912
G1 X100.349 Y95.425 E.07522
G1 X101.289 Y95.075 E.07982
G1 X102.13 Y94.848 E.06932
G1 X103.172 Y94.662 E.08423
G1 X104.32 Y94.555 E.09176
G1 X105.573 Y94.527 E.09974
G1 X106.728 Y94.576 E.092
G1 X107.779 Y94.693 E.08416
G1 X108.625 Y94.853 E.06852
G1 X109.564 Y95.117 E.07762
G1 X110.407 Y95.44 E.07184
G1 X111.561 Y96.021 E.10282
G1 X112.292 Y96.441 E.06709
G1 X114.743 Y97.944 E.22881
G1 X115.684 Y98.443 E.08476
G1 X116.444 Y98.784 E.06629
G1 X117.393 Y99.128 E.08033
G1 X117.927 Y99.282 E.04423
G1 X118.571 Y99.432 E.05262
G1 X119.609 Y99.602 E.08371
G1 X120.86 Y99.707 E.09991
G1 X121.704 Y99.726 E.06718
G1 X122.336 Y99.715 E.0503
G1 X123.571 Y99.632 E.0985
G1 X124.099 Y99.557 E.04244
M204 P2000
G1 E-.4 F1500
;WIPE_START
G1 F14400
G1 X124.218 Y99.54 E-.0119
G1 X124.826 Y99.453 E-.06078
G1 X125.879 Y99.216 E-.10681
G1 X126.836 Y98.927 E-.09893
G1 X127.463 Y98.698 E-.06606
G1 X127.982 Y98.485 E-.05552
;WIPE_END
M204 T4000
G1 X154.486 Y99.382 Z.663 F18000
G1 X158.411 Y99.515 Z.723
G1 X162.336 Y99.648 Z.766
G1 X170.187 Y99.914 Z.8
G1 X223.908 Y101.732
G1 Z.2 F720
G1 E.8 F900
M204 P500
;TYPE:Solid infill
;WIDTH:1.00523
G1 F3300
G1 X222.812 Y100.636 E.12402
G1 X222.657 Y100.523 E.01535
G1 X222.499 Y100.44 E.01428
G1 X222.39 Y100.406 E.00914
G1 X222.236 Y100.391 E.01238
G1 X221.209 Y100.395 E.08218
G1 X223.478 Y102.663 E.2567
G1 X223.479 Y104.025 E.10898
G1 X219.853 Y100.399 E.41032
G1 X218.479 Y100.386 E.10995
G1 X223.48 Y105.387 E.56591
G1 X223.481 Y106.749 E.10898
G1 X217.094 Y100.362 E.72275
G1 X215.71 Y100.339 E.11076
G1 X223.482 Y108.111 E.87948
G1 X223.483 Y109.473 E.10898
G1 X214.325 Y100.315 E1.03632
G1 X212.941 Y100.292 E.11076
G1 X223.484 Y110.835 E1.19304
G1 X223.485 Y112.197 E.10898
G1 X211.557 Y100.268 E1.34983
G1 X210.182 Y100.254 E.11003
G1 X223.474 Y113.546 E1.50412
G1 X223.412 Y113.797 E.02069
G1 X223.317 Y113.991 E.01728
G1 X222.988 Y114.422 E.04339
G1 X208.807 Y100.241 E1.60472
G1 X207.433 Y100.227 E.10995
G1 X222.16 Y114.954 E1.6665
G1 X221.925 Y114.986 E.01898
G1 X220.831 Y114.986 E.08754
G1 X206.059 Y100.214 E1.6716
G1 X204.684 Y100.201 E.11003
G1 X219.47 Y114.986 E1.67312
G1 X218.109 Y114.986 E.1089
G1 X203.31 Y100.187 E1.67465
G1 X201.936 Y100.174 E.10995
G1 X216.748 Y114.986 E1.67612
G1 X215.388 Y114.986 E.10882
G1 X200.561 Y100.16 E1.67776
G1 X199.187 Y100.147 E.10995
G1 X214.027 Y114.986 E1.67924
G1 X212.666 Y114.986 E.1089
G1 X197.813 Y100.134 E1.68071
G1 X196.441 Y100.123 E.10979
G1 X211.305 Y114.986 E1.68195
G1 X209.944 Y114.986 E.1089
G1 X195.077 Y100.12 E1.68229
G1 X193.714 Y100.117 E.10906
G1 X208.583 Y114.986 E1.68257
G1 X207.222 Y114.986 E.1089
G1 X192.355 Y100.12 E1.68229
G1 X191.003 Y100.129 E.10818
G1 X205.861 Y114.986 E1.68127
G1 X204.5 Y114.986 E.1089
G1 X189.651 Y100.137 E1.68031
G1 X188.299 Y100.146 E.10818
G1 X203.139 Y114.986 E1.67929
G1 X201.779 Y114.986 E.10882
M73 P0 R112
G1 X186.947 Y100.155 E1.67833
G1 X185.588 Y100.157 E.10874
G1 X200.418 Y114.986 E1.6781
G1 X199.057 Y114.986 E.1089
G1 X184.221 Y100.151 E1.67878
G1 X182.843 Y100.134 E.11027
G1 X197.696 Y114.986 E1.68071
G1 X196.335 Y114.986 E.1089
G1 X181.456 Y100.107 E1.6837
G1 X180.062 Y100.075 E.11157
G1 X194.974 Y114.986 E1.68738
G1 X193.613 Y114.986 E.1089
M73 Q0 S112
G1 X178.657 Y100.03 E1.69242
G1 X177.252 Y99.986 E.11248
G1 X192.252 Y114.986 E1.6974
G1 X190.891 Y114.986 E.1089
G1 X175.846 Y99.942 E1.70243
G1 X174.451 Y99.907 E.11166
G1 X189.53 Y114.986 E1.70634
G1 X188.169 Y114.986 E.1089
G1 X173.074 Y99.891 E1.70815
G1 X171.72 Y99.898 E.10834
G1 X186.809 Y114.986 E1.70741
G1 X185.448 Y114.986 E.1089
G1 X170.39 Y99.929 E1.7039
G1 X169.085 Y99.985 E.10452
G1 X184.087 Y114.986 E1.69757
G1 X182.726 Y114.986 E.1089
G1 X167.804 Y100.065 E1.68851
G1 X166.535 Y100.156 E.1018
G1 X181.365 Y114.986 E1.67816
G1 X180.004 Y114.986 E.1089
G1 X165.271 Y100.253 E1.66718
G1 X164.007 Y100.351 E.10144
G1 X178.643 Y114.986 E1.65615
G1 X177.282 Y114.986 E.1089
G1 X162.739 Y100.444 E1.64563
G1 X161.45 Y100.515 E.1033
G1 X175.921 Y114.986 E1.63754
G1 X174.56 Y114.986 E.1089
G1 X160.146 Y100.572 E1.63109
G1 X158.812 Y100.599 E.10676
G1 X173.199 Y114.986 E1.62803
G1 X171.839 Y114.986 E.10882
G1 X157.444 Y100.592 E1.62888
G1 X156.033 Y100.541 E.11298
G1 X170.478 Y114.986 E1.63459
G1 X169.117 Y114.986 E.1089
G1 X154.558 Y100.427 E1.64749
G1 X153.318 Y100.268 E.10003
G1 X152.972 Y100.202 E.02818
G1 X167.756 Y114.986 E1.67295
G1 X166.395 Y114.986 E.1089
G1 X151.224 Y99.815 E1.71675
G1 X150.727 Y99.686 E.04109
G1 X149.695 Y99.35 E.08684
G1 X149.21 Y99.163 E.04159
G1 X165.034 Y114.986 E1.79058
G1 X163.673 Y114.986 E.1089
G1 X146.834 Y98.148 E1.90544
G1 X145.519 Y97.561 E.11523
G1 X144.432 Y97.106 E.09429
G1 X162.312 Y114.986 E2.0233
G1 X160.951 Y114.986 E.1089
G1 X142.384 Y96.42 E2.10098
G1 X141.527 Y96.221 E.0704
G1 X140.691 Y96.087 E.06775
G1 X159.59 Y114.986 E2.13861
G1 X158.23 Y114.986 E.10882
G1 X139.194 Y95.951 E2.15405
G1 X138.51 Y95.926 E.05477
G1 X137.83 Y95.948 E.05444
G1 X156.869 Y114.986 E2.15439
G1 X155.508 Y114.986 E.1089
G1 X136.569 Y96.048 E2.14308
G1 X136.326 Y96.073 E.01955
G1 X135.403 Y96.242 E.07508
G1 X154.147 Y114.986 E2.12107
G1 X152.786 Y114.986 E.1089
G1 X134.322 Y96.522 E2.08938
G1 X133.31 Y96.871 E.08566
G1 X151.425 Y114.986 E2.04989
G1 X150.064 Y114.986 E.1089
G1 X132.356 Y97.278 E2.00383
G1 X131.435 Y97.718 E.08167
G1 X148.703 Y114.986 E1.95404
G1 X147.342 Y114.986 E.1089
G1 X130.527 Y98.172 E1.90273
G1 X129.62 Y98.625 E.08112
G1 X145.981 Y114.986 E1.85141
G1 X144.62 Y114.986 E.1089
G1 X128.693 Y99.059 E1.8023
G1 X127.737 Y99.464 E.08308
G1 X143.26 Y114.986 E1.75652
G1 X141.899 Y114.986 E.1089
G1 X126.722 Y99.81 E1.71737
G1 X126.052 Y100.011 E.05597
G1 X125.652 Y100.101 E.03281
G1 X140.538 Y114.986 E1.68444
G1 X139.177 Y114.986 E.1089
G1 X124.509 Y100.319 E1.65977
G1 X123.619 Y100.444 E.07191
G1 X123.295 Y100.466 E.02598
G1 X137.816 Y114.986 E1.64314
G1 X136.455 Y114.986 E.1089
G1 X122.003 Y100.535 E1.63533
G1 X120.846 Y100.52 E.09259
G1 X120.608 Y100.5 E.01911
G1 X135.094 Y114.986 E1.63923
G1 X133.733 Y114.986 E.1089
G1 X119.084 Y100.338 E1.65762
G1 X118.365 Y100.22 E.0583
G1 X117.347 Y99.961 E.08405
G1 X132.372 Y114.986 E1.70023
G1 X131.011 Y114.986 E.1089
G1 X115.056 Y99.031 E1.80546
G1 X114.366 Y98.665 E.0625
G1 X111.694 Y97.03 E.25065
G1 X129.65 Y114.986 E2.0319
G1 X128.29 Y114.986 E.10882
G1 X109.148 Y95.845 E2.16605
G1 X108.439 Y95.646 E.05892
G1 X107.658 Y95.498 E.0636
G1 X107.413 Y95.471 E.01972
G1 X126.929 Y114.986 E2.20837
G1 X125.568 Y114.986 E.1089
G1 X105.938 Y95.357 E2.22127
G1 X105.565 Y95.341 E.02987
G1 X104.583 Y95.363 E.0786
G1 X124.207 Y114.986 E2.22059
G1 X122.846 Y114.986 E.1089
G1 X103.324 Y95.465 E2.20905
G1 X102.176 Y95.678 E.09343
M73 Q1 S112
G1 X121.485 Y114.986 E2.18495
G1 X120.124 Y114.986 E.1089
M73 P1 R112
G1 X101.137 Y96 E2.14851
G1 X100.665 Y96.175 E.04028
G1 X100.182 Y96.405 E.04281
G1 X118.763 Y114.986 E2.10262
G1 X117.402 Y114.986 E.1089
G1 X99.291 Y96.875 E2.04944
G1 X98.437 Y97.382 E.07947
G1 X116.041 Y114.986 E1.99207
G1 X114.681 Y114.986 E.10882
G1 X97.591 Y97.897 E1.93384
G1 X96.737 Y98.404 E.07947
G1 X113.32 Y114.986 E1.87647
G1 X111.959 Y114.986 E.1089
G1 X95.853 Y98.881 E1.8225
G1 X95.447 Y99.091 E.03657
G1 X94.928 Y99.316 E.04526
G1 X110.598 Y114.986 E1.77321
G1 X109.237 Y114.986 E.1089
G1 X93.938 Y99.688 E1.73118
G1 X93.574 Y99.813 E.0308
G1 X92.883 Y99.994 E.05716
G1 X107.876 Y114.986 E1.69655
G1 X106.515 Y114.986 E.1089
G1 X91.723 Y100.194 E1.67386
G1 X91.191 Y100.268 E.04298
G1 X90.484 Y100.316 E.0567
G1 X105.154 Y114.986 E1.66005
G1 X103.793 Y114.986 E.1089
G1 X89.108 Y100.302 E1.6617
G1 X88.68 Y100.284 E.03428
G1 X87.595 Y100.149 E.08749
G1 X102.432 Y114.986 E1.67895
G1 X101.071 Y114.986 E.1089
G1 X85.802 Y99.717 E1.72784
G1 X85.13 Y99.477 E.0571
G1 X84.234 Y99.085 E.07826
G1 X83.348 Y98.623 E.07995
G1 X99.711 Y114.986 E1.85163
G1 X98.35 Y114.986 E.1089
G1 X79.987 Y96.624 E2.0779
G1 X79.331 Y96.292 E.05883
G1 X78.533 Y95.964 E.06904
G1 X77.722 Y95.72 E.06777
G1 X96.989 Y114.986 E2.18019
G1 X95.628 Y114.986 E.1089
G1 X76.086 Y95.444 E2.21137
G1 X75.649 Y95.403 E.03512
G1 X74.654 Y95.374 E.07965
G1 X94.267 Y114.986 E2.21935
G1 X92.906 Y114.986 E.1089
G1 X73.345 Y95.426 E2.21346
G1 X72.931 Y95.464 E.03327
G1 X72.144 Y95.585 E.06371
G1 X91.545 Y114.986 E2.19541
G1 X90.184 Y114.986 E.1089
G1 X71.067 Y95.869 E2.16328
G1 X70.68 Y95.998 E.03264
G1 X70.086 Y96.25 E.05163
G1 X88.823 Y114.986 E2.12022
G1 X87.462 Y114.986 E.1089
G1 X69.199 Y96.723 E2.06664
G1 X68.836 Y96.932 E.03352
G1 X68.359 Y97.244 E.04561
G1 X86.101 Y114.986 E2.00768
G1 X84.741 Y114.986 E.10882
G1 X67.537 Y97.782 E1.9468
G1 X66.714 Y98.321 E.07872
G1 X83.38 Y114.986 E1.88586
G1 X82.019 Y114.986 E.1089
G1 X65.872 Y98.839 E1.82719
G1 X64.99 Y99.318 E.08031
G1 X80.658 Y114.986 E1.77299
G1 X79.297 Y114.986 E.1089
G1 X64.053 Y99.743 E1.72495
G1 X63.7 Y99.892 E.03066
G1 X63.048 Y100.098 E.05471
G1 X77.936 Y114.986 E1.68472
G1 X76.575 Y114.986 E.1089
G1 X61.961 Y100.373 E1.65366
G1 X61.6 Y100.451 E.02955
G1 X60.792 Y100.564 E.06528
G1 X75.214 Y114.986 E1.63199
G1 X73.853 Y114.986 E.1089
G1 X59.519 Y100.652 E1.62203
G1 X58.943 Y100.679 E.04614
G1 X58.178 Y100.672 E.06121
G1 X72.492 Y114.986 E1.61977
G1 X71.132 Y114.986 E.10882
